assets/img/instagram.svg

<svg height="60" width="61" xmlns="http://www.w3.org/2000/svg"><g><path d="m31 15c-8.136 0-15 6.61-15 15s6.61 15 15 15 15-6.61 15-15-6.864-15-15-15zm-5.5 9a2.49 2.49 0 0 1 -2.5-2.5 2.49 2.49 0 0 1 2.5-2.5 2.49 2.49 0 0 1 2.5 2.5 2.49 2.49 0 0 1 -2.5 2.5z"/><path d="m57.329 0h-53.234c-2.303 0-4.095 1.787-4.095 3.83v52.34c0 2.043 1.792 3.83 3.839 3.83h53.234c2.048 0 3.84-1.787 3.84-3.83v-52.34c.51-2.043-1.28-3.83-3.584-3.83zm-26.329 50c-10.886 0-20-8.86-20-20s8.86-20 20-20 20 8.86 20 20-9.114 20-20 20zm21.5-41a2.49 2.49 0 0 1 -2.5-2.5 2.49 2.49 0 0 1 2.5-2.5 2.49 2.49 0 0 1 2.5 2.5c0 1.389-.833 2.5-2.5 2.5z"/></g></svg>

<svg width="61" height="60" xmlns="http://www.w3.org/2000/svg"><g fill="#000" fill-rule="nonzero"><path d="M31 15c-8.136 0-15 6.61-15 15s6.61 15 15 15 15-6.61 15-15-6.864-15-15-15zm-5.5 9a2.49 2.49 0 0 1-2.5-2.5 2.49 2.49 0 0 1 2.5-2.5 2.49 2.49 0 0 1 2.5 2.5 2.49 2.49 0 0 1-2.5 2.5z"/><path d="M57.329 0H4.095C1.792 0 0 1.787 0 3.83v52.34C0 58.213 1.792 60 3.839 60h53.234c2.048 0 3.84-1.787 3.84-3.83V3.83c.51-2.043-1.28-3.83-3.584-3.83zM31 50c-10.886 0-20-8.86-20-20s8.86-20 20-20 20 8.86 20 20-9.114 20-20 20zM52.5 9A2.49 2.49 0 0 1 50 6.5 2.49 2.49 0 0 1 52.5 4 2.49 2.49 0 0 1 55 6.5c0 1.389-.833 2.5-2.5 2.5z"/></g></svg>
